resources/dark/collapse.svg

<svg width="16" height="16" fill="none" xmlns="http://www.w3.org/2000/svg">
    <path d="M9 9H4v1h5V9z" fill="#C5C5C5"/>
    <path fill-rule="evenodd" clip-rule="evenodd" d="M5 3l1-1h7l1 1v7l-1 1h-2v2l-1 1H3l-1-1V6l1-1h2V3zm1 2h4l1 1v4h2V3H6v2zm4 1H3v7h7V6z" fill="#C5C5C5"/>
</svg>

<svg width="16" height="16" viewBox="0 0 16 16" fill="none" xmlns="http://www.w3.org/2000/svg">
<path d="M9 9H4V10H9V9Z" fill="#C5C5C5"/>
<path fill-rule="evenodd" clip-rule="evenodd" d="M5 3L6 2H13L14 3V10L13 11H11V13L10 14H3L2 13V6L3 5H5V3ZM6 5H10L11 6V10H13V3H6V5ZM10 6H3V13H10V6Z" fill="#C5C5C5"/>
</svg>
